X:14
T:Jigs 4 - The Midlothian Pipe Band*
M:6/8
T:Scarce o'Tattoes
K:G
"Am"Aee efg | "Am"edB "G"dBG | "Am"Aee efg | "Em"edB "Am"A3 |
"Am"a2a "G"gag | "D"fgf eAA | "Em"Aee efg | "Em"edB "G"A2G :|
"Am"aeg a3 | "G"g2f "Em"eAA | "Am"aeg a2 e | "G"gaf "Em"e3 |
"Am"eee "C"AAA | "D"def fed | "Em"Aee efg | "Em"edB "D"A3 :|
T:The Midlothian Pipe Band
K:G
GA |: "G"B2D DED | "C"E2G "Am"G2e | "G"d2B BAG | "C"B2A "D"ABc |
"G"B2D DED | "C"E2G "Am"G2e | "D"d2B ABA |1 "C"G3- GGA :|2 "C"G3- GBc |
"G"d2d dBd | "C"e2g gfe | "G"d2B BAG | "C"B2A "D"ABc |
"G"d2d def | "C"g2g gfe | "D"d2B ABA |1 "C"G3- GBc :|2 "G"G3- G ||
%%newpage

